report_00007_2020-12-11T15:55:29.892Z/first-cpu-idle/comparison/line/0_vs_1.svg

<svg width="640" height="500" xmlns="http://www.w3.org/2000/svg" xmlns:xlink="http://www.w3.org/1999/xlink"><path fill="#fff" d="M0 0h640v500H0z"/><defs><path id="d" stroke-width=".222" stroke="currentColor" d="M-1-1h2v2h-2z"/><path id="b" stroke-width=".222" stroke="currentColor" d="M0-1.33l-1.33 2h2.66z"/><path id="f" stroke-width=".222" stroke="currentColor" d="M0 1.33L1.265.411.782-1.067l-1.564-.009-.483 1.487z"/><use xlink:href="#b" id="c" stroke="currentColor" transform="rotate(180)"/><use xlink:href="#d" id="e" stroke="currentColor" transform="rotate(45)"/><circle id="a" stroke-width=".222" stroke="currentColor" cx="0" cy="0" r="1"/></defs><g fill="none" color="#000" stroke="currentColor"><path stroke="#000" d="M62.2 387h9m543.8 0h-9"/><text transform="translate(53.9 390.9)" stroke="none" fill="#000" font-family="Arial" font-size="12" text-anchor="end"><tspan>1000</tspan></text></g><g fill="none" color="#000" stroke="currentColor"><path stroke="#000" d="M62.2 342.7h9m543.8 0h-9"/><text transform="translate(53.9 346.6)" stroke="none" fill="#000" font-family="Arial" font-size="12" text-anchor="end"><tspan>1500</tspan></text></g><g fill="none" color="#000" stroke="currentColor"><path stroke="#000" d="M62.2 298.5h9m543.8 0h-9"/><text transform="translate(53.9 302.4)" stroke="none" fill="#000" font-family="Arial" font-size="12" text-anchor="end"><tspan>2000</tspan></text></g><g fill="none" color="#000" stroke="currentColor"><path stroke="#000" d="M62.2 254.2h9m543.8 0h-9"/><text transform="translate(53.9 258.1)" stroke="none" fill="#000" font-family="Arial" font-size="12" text-anchor="end"><tspan>2500</tspan></text></g><g fill="none" color="#000" stroke="currentColor"><path stroke="#000" d="M62.2 210h9m543.8 0h-9"/><text transform="translate(53.9 213.9)" stroke="none" fill="#000" font-family="Arial" font-size="12" text-anchor="end"><tspan>3000</tspan></text></g><g fill="none" color="#000" stroke="currentColor"><path stroke="#000" d="M62.2 165.8h9m543.8 0h-9"/><text transform="translate(53.9 169.7)" stroke="none" fill="#000" font-family="Arial" font-size="12" text-anchor="end"><tspan>3500</tspan></text></g><g fill="none" color="#000" stroke="currentColor"><path stroke="#000" d="M62.2 121.5h9m543.8 0h-9"/><text transform="translate(53.9 125.4)" stroke="none" fill="#000" font-family="Arial" font-size="12" text-anchor="end"><tspan>4000</tspan></text></g><g fill="none" color="#000" stroke="currentColor"><path stroke="#000" d="M62.2 77.3h9m543.8 0h-9"/><text transform="translate(53.9 81.2)" stroke="none" fill="#000" font-family="Arial" font-size="12" text-anchor="end"><tspan>4500</tspan></text></g><g fill="none" color="#000" stroke="currentColor"><path stroke="#000" d="M62.2 33.1h9m543.8 0h-9"/><text transform="translate(53.9 37)" stroke="none" fill="#000" font-family="Arial" font-size="12" text-anchor="end"><tspan>5000</tspan></text></g><g fill="none" color="#000" stroke="currentColor"><path stroke="#000" d="M62.2 428v-9m0-400.9v9"/><text transform="translate(62.2 449.9)" stroke="none" fill="#000" font-family="Arial" font-size="12" text-anchor="middle"><tspan>0</tspan></text></g><g fill="none" color="#000" stroke="currentColor"><path stroke="#000" d="M118 428v-9m0-400.9v9"/><text transform="translate(118 449.9)" stroke="none" fill="#000" font-family="Arial" font-size="12" text-anchor="middle"><tspan>10</tspan></text></g><g fill="none" color="#000" stroke="currentColor"><path stroke="#000" d="M173.9 428v-9m0-400.9v9"/><text transform="translate(173.9 449.9)" stroke="none" fill="#000" font-family="Arial" font-size="12" text-anchor="middle"><tspan>20</tspan></text></g><g fill="none" color="#000" stroke="currentColor"><path stroke="#000" d="M229.7 428v-9m0-400.9v9"/><text transform="translate(229.7 449.9)" stroke="none" fill="#000" font-family="Arial" font-size="12" text-anchor="middle"><tspan>30</tspan></text></g><g fill="none" color="#000" stroke="currentColor"><path stroke="#000" d="M285.6 428v-9m0-400.9v9"/><text transform="translate(285.6 449.9)" stroke="none" fill="#000" font-family="Arial" font-size="12" text-anchor="middle"><tspan>40</tspan></text></g><g fill="none" color="#000" stroke="currentColor"><path stroke="#000" d="M341.4 428v-9m0-400.9v9"/><text transform="translate(341.4 449.9)" stroke="none" fill="#000" font-family="Arial" font-size="12" text-anchor="middle"><tspan>50</tspan></text></g><g fill="none" color="#000" stroke="currentColor"><path stroke="#000" d="M397.2 428v-9m0-400.9v9"/><text transform="translate(397.2 449.9)" stroke="none" fill="#000" font-family="Arial" font-size="12" text-anchor="middle"><tspan>60</tspan></text></g><g fill="none" color="#000" stroke="currentColor"><path stroke="#000" d="M453.1 428v-9m0-400.9v9"/><text transform="translate(453.1 449.9)" stroke="none" fill="#000" font-family="Arial" font-size="12" text-anchor="middle"><tspan>70</tspan></text></g><g fill="none" color="#000" stroke="currentColor"><path stroke="#000" d="M508.9 428v-9m0-400.9v9"/><text transform="translate(508.9 449.9)" stroke="none" fill="#000" font-family="Arial" font-size="12" text-anchor="middle"><tspan>80</tspan></text></g><g fill="none" color="#000" stroke="currentColor"><path stroke="#000" d="M564.7 428v-9m0-400.9v9"/><text transform="translate(564.7 449.9)" stroke="none" fill="#000" font-family="Arial" font-size="12" text-anchor="middle"><tspan>90</tspan></text></g><path stroke="#000" d="M62.2 18.1V428H615V18.1H62.2z" fill="none" color="#000"/><text transform="translate(279.8 467.9)" stroke="none" fill="#000" font-family="Arial" font-size="12" text-anchor="end" color="#000"><tspan>empty</tspan></text><path stroke="#9400D3" d="M288.1 464h42.2M62.2 419.2l5.6.9 5.6-.3 5.6-.2 5.5.2h5.6l5.6.1 5.6-.1 5.6.1 5.6.2h5.5l5.6-.3h5.6l5.6-.3 5.6.2h5.6l5.5.1h22.4l5.6.2 5.5-.2 5.6.1h11.2l5.6-.1h16.7l5.6-.4 5.6.4h11.2l5.6-.4 5.5.4 5.6.2 5.6-.2 5.6.1 5.6-.1 5.6.1h11.1l5.6-.1 5.6.1 5.6.1 5.6-.2h5.5l5.6-.2 5.6-.5 5.6.9 5.6-.3h5.6l5.5-.3 5.6.2 5.6.3h5.6l5.6-.1 5.6.2 5.5-.1 5.6-.2 5.6.2 5.6-.1h5.6l5.6.1h5.5l5.6.2 5.6-.2 5.6-.3 5.6.2h5.6l5.6.3 5.5-.3 5.6.1 5.6-.1 5.6.1h5.6l5.6.1 5.5-.2 5.6.1 5.6.2 5.6-.3 5.6.1 5.6-.1 5.5.1 5.6.1 5.6.1 5.6-.3 5.6.1h5.6l5.5-.1h5.6l5.6.3 5.6-.3 5.6.1 5.6-.2 5.5.2h5.6l5.6.2 5.6-.7" fill="none" color="#000"/><text transform="translate(279.8 485.9)" stroke="none" fill="#000" font-family="Arial" font-size="12" text-anchor="end" color="#000"><tspan>pages</tspan></text><path stroke="#009E73" d="M288.1 482h42.2M62.2 26l5.6 276 5.6.2L79 299l5.5 3.9 5.6-.5 5.6.2 5.6-.3 5.6.6 5.6-.2 5.5.5 5.6-18.1 5.6 17.4 5.6.5 5.6-.4 5.6-4.9 5.5 4.8 5.6.4 5.6.3 5.6-1.9 5.6 1.6 5.6.3 5.5-20.6 5.6 14.6 5.6 5.4 5.6.7 5.6-1.2 5.6.3 5.5.5 5.6.1 5.6-.7 5.6.4 5.6.1 5.6.3 5.6-9 5.5 8.8 5.6.3 5.6-.5 5.6-.2 5.6.5 5.6-.7 5.5.9 5.6-1 5.6-5.2 5.6 5.8 5.6-7 5.6 6.1 5.5.8 5.6.3 5.6-.5 5.6-66.5 5.6 66.4 5.6.9 5.5-.7 5.6-.7 5.6 1.4 5.6-21.1 5.6 20.1 5.6.5 5.5.5 5.6-7.1 5.6 7.1 5.6-.1 5.6-.3 5.6-.7 5.5 1 5.6-.2 5.6.3 5.6-11 5.6 10.9 5.6-.1 5.6-.2 5.5-.2 5.6.5 5.6-.1h5.6l5.6-1 5.6 1.1 5.5-.2 5.6-9.9 5.6 9.1 5.6.6 5.6.3 5.6-.3 5.5-.4 5.6-256.9 5.6 256.9 5.6.1 5.6.8 5.6-20.3 5.5 19.8 5.6-.2 5.6.7 5.6-.7h5.6l5.6-5.4 5.5 5.5 5.6-.3 5.6.7 5.6-1" fill="none" color="#000"/><text transform="translate(479.7 467.9)" stroke="none" fill="#000" font-family="Arial" font-size="12" text-anchor="end" color="#000"><tspan>score p10=3572</tspan></text><path stroke="#56B4E9" d="M488 464h42.2m-468-304.6H615" fill="none" color="#000"/><g><text transform="translate(479.7 485.9)" stroke="none" fill="#000" font-family="Arial" font-size="12" text-anchor="end" color="#000"><tspan>score median=6500</tspan></text><path stroke="#E69F00" d="M488 482h42.2" fill="none" color="#000"/></g><g fill="none" color="#000" stroke="currentColor"><path stroke="#000" d="M62.2 18.1V428H615V18.1H62.2z"/></g></svg>

<?xml version="1.0" encoding="utf-8"  standalone="no"?>
<svg 
 width="640" height="500"
 viewBox="0 0 640 500"
 xmlns="http://www.w3.org/2000/svg"
 xmlns:xlink="http://www.w3.org/1999/xlink"
>

<title>Gnuplot</title>
<desc>Produced by GNUPLOT 5.4 patchlevel 0 </desc>

<g id="gnuplot_canvas">

<rect x="0" y="0" width="640" height="500" fill="#ffffff"/>
<defs>

	<circle id='gpDot' r='0.5' stroke-width='0.5' stroke='currentColor'/>
	<path id='gpPt0' stroke-width='0.222' stroke='currentColor' d='M-1,0 h2 M0,-1 v2'/>
	<path id='gpPt1' stroke-width='0.222' stroke='currentColor' d='M-1,-1 L1,1 M1,-1 L-1,1'/>
	<path id='gpPt2' stroke-width='0.222' stroke='currentColor' d='M-1,0 L1,0 M0,-1 L0,1 M-1,-1 L1,1 M-1,1 L1,-1'/>
	<rect id='gpPt3' stroke-width='0.222' stroke='currentColor' x='-1' y='-1' width='2' height='2'/>
	<rect id='gpPt4' stroke-width='0.222' stroke='currentColor' fill='currentColor' x='-1' y='-1' width='2' height='2'/>
	<circle id='gpPt5' stroke-width='0.222' stroke='currentColor' cx='0' cy='0' r='1'/>
	<use xlink:href='#gpPt5' id='gpPt6' fill='currentColor' stroke='none'/>
	<path id='gpPt7' stroke-width='0.222' stroke='currentColor' d='M0,-1.33 L-1.33,0.67 L1.33,0.67 z'/>
	<use xlink:href='#gpPt7' id='gpPt8' fill='currentColor' stroke='none'/>
	<use xlink:href='#gpPt7' id='gpPt9' stroke='currentColor' transform='rotate(180)'/>
	<use xlink:href='#gpPt9' id='gpPt10' fill='currentColor' stroke='none'/>
	<use xlink:href='#gpPt3' id='gpPt11' stroke='currentColor' transform='rotate(45)'/>
	<use xlink:href='#gpPt11' id='gpPt12' fill='currentColor' stroke='none'/>
	<path id='gpPt13' stroke-width='0.222' stroke='currentColor' d='M0,1.330 L1.265,0.411 L0.782,-1.067 L-0.782,-1.076 L-1.265,0.411 z'/>
	<use xlink:href='#gpPt13' id='gpPt14' fill='currentColor' stroke='none'/>
	<filter id='textbox' filterUnits='objectBoundingBox' x='0' y='0' height='1' width='1'>
	  <feFlood flood-color='#FFFFFF' flood-opacity='1' result='bgnd'/>
	  <feComposite in='SourceGraphic' in2='bgnd' operator='atop'/>
	</filter>
	<filter id='greybox' filterUnits='objectBoundingBox' x='0' y='0' height='1' width='1'>
	  <feFlood flood-color='lightgrey' flood-opacity='1' result='grey'/>
	  <feComposite in='SourceGraphic' in2='grey' operator='atop'/>
	</filter>
</defs>
<g fill="none" color="#FFFFFF" stroke="black" stroke-width="1.00" stroke-linecap="butt" stroke-linejoin="miter">
</g>
<g fill="none" color="black" stroke="currentColor" stroke-width="1.00" stroke-linecap="butt" stroke-linejoin="miter">
	<path stroke='black'  d='M62.2,387.0 L71.2,387.0 M615.0,387.0 L606.0,387.0  '/>	<g transform="translate(53.9,390.9)" stroke="none" fill="black" font-family="Arial" font-size="12.00"  text-anchor="end">
		<text><tspan font-family="Arial" > 1000</tspan></text>
	</g>
</g>
<g fill="none" color="black" stroke="currentColor" stroke-width="1.00" stroke-linecap="butt" stroke-linejoin="miter">
	<path stroke='black'  d='M62.2,342.7 L71.2,342.7 M615.0,342.7 L606.0,342.7  '/>	<g transform="translate(53.9,346.6)" stroke="none" fill="black" font-family="Arial" font-size="12.00"  text-anchor="end">
		<text><tspan font-family="Arial" > 1500</tspan></text>
	</g>
</g>
<g fill="none" color="black" stroke="currentColor" stroke-width="1.00" stroke-linecap="butt" stroke-linejoin="miter">
	<path stroke='black'  d='M62.2,298.5 L71.2,298.5 M615.0,298.5 L606.0,298.5  '/>	<g transform="translate(53.9,302.4)" stroke="none" fill="black" font-family="Arial" font-size="12.00"  text-anchor="end">
		<text><tspan font-family="Arial" > 2000</tspan></text>
	</g>
</g>
<g fill="none" color="black" stroke="currentColor" stroke-width="1.00" stroke-linecap="butt" stroke-linejoin="miter">
	<path stroke='black'  d='M62.2,254.2 L71.2,254.2 M615.0,254.2 L606.0,254.2  '/>	<g transform="translate(53.9,258.1)" stroke="none" fill="black" font-family="Arial" font-size="12.00"  text-anchor="end">
		<text><tspan font-family="Arial" > 2500</tspan></text>
	</g>
</g>
<g fill="none" color="black" stroke="currentColor" stroke-width="1.00" stroke-linecap="butt" stroke-linejoin="miter">
	<path stroke='black'  d='M62.2,210.0 L71.2,210.0 M615.0,210.0 L606.0,210.0  '/>	<g transform="translate(53.9,213.9)" stroke="none" fill="black" font-family="Arial" font-size="12.00"  text-anchor="end">
		<text><tspan font-family="Arial" > 3000</tspan></text>
	</g>
</g>
<g fill="none" color="black" stroke="currentColor" stroke-width="1.00" stroke-linecap="butt" stroke-linejoin="miter">
	<path stroke='black'  d='M62.2,165.8 L71.2,165.8 M615.0,165.8 L606.0,165.8  '/>	<g transform="translate(53.9,169.7)" stroke="none" fill="black" font-family="Arial" font-size="12.00"  text-anchor="end">
		<text><tspan font-family="Arial" > 3500</tspan></text>
	</g>
</g>
<g fill="none" color="black" stroke="currentColor" stroke-width="1.00" stroke-linecap="butt" stroke-linejoin="miter">
	<path stroke='black'  d='M62.2,121.5 L71.2,121.5 M615.0,121.5 L606.0,121.5  '/>	<g transform="translate(53.9,125.4)" stroke="none" fill="black" font-family="Arial" font-size="12.00"  text-anchor="end">
		<text><tspan font-family="Arial" > 4000</tspan></text>
	</g>
</g>
<g fill="none" color="black" stroke="currentColor" stroke-width="1.00" stroke-linecap="butt" stroke-linejoin="miter">
	<path stroke='black'  d='M62.2,77.3 L71.2,77.3 M615.0,77.3 L606.0,77.3  '/>	<g transform="translate(53.9,81.2)" stroke="none" fill="black" font-family="Arial" font-size="12.00"  text-anchor="end">
		<text><tspan font-family="Arial" > 4500</tspan></text>
	</g>
</g>
<g fill="none" color="black" stroke="currentColor" stroke-width="1.00" stroke-linecap="butt" stroke-linejoin="miter">
	<path stroke='black'  d='M62.2,33.1 L71.2,33.1 M615.0,33.1 L606.0,33.1  '/>	<g transform="translate(53.9,37.0)" stroke="none" fill="black" font-family="Arial" font-size="12.00"  text-anchor="end">
		<text><tspan font-family="Arial" > 5000</tspan></text>
	</g>
</g>
<g fill="none" color="black" stroke="currentColor" stroke-width="1.00" stroke-linecap="butt" stroke-linejoin="miter">
	<path stroke='black'  d='M62.2,428.0 L62.2,419.0 M62.2,18.1 L62.2,27.1  '/>	<g transform="translate(62.2,449.9)" stroke="none" fill="black" font-family="Arial" font-size="12.00"  text-anchor="middle">
		<text><tspan font-family="Arial" > 0</tspan></text>
	</g>
</g>
<g fill="none" color="black" stroke="currentColor" stroke-width="1.00" stroke-linecap="butt" stroke-linejoin="miter">
	<path stroke='black'  d='M118.0,428.0 L118.0,419.0 M118.0,18.1 L118.0,27.1  '/>	<g transform="translate(118.0,449.9)" stroke="none" fill="black" font-family="Arial" font-size="12.00"  text-anchor="middle">
		<text><tspan font-family="Arial" > 10</tspan></text>
	</g>
</g>
<g fill="none" color="black" stroke="currentColor" stroke-width="1.00" stroke-linecap="butt" stroke-linejoin="miter">
	<path stroke='black'  d='M173.9,428.0 L173.9,419.0 M173.9,18.1 L173.9,27.1  '/>	<g transform="translate(173.9,449.9)" stroke="none" fill="black" font-family="Arial" font-size="12.00"  text-anchor="middle">
		<text><tspan font-family="Arial" > 20</tspan></text>
	</g>
</g>
<g fill="none" color="black" stroke="currentColor" stroke-width="1.00" stroke-linecap="butt" stroke-linejoin="miter">
	<path stroke='black'  d='M229.7,428.0 L229.7,419.0 M229.7,18.1 L229.7,27.1  '/>	<g transform="translate(229.7,449.9)" stroke="none" fill="black" font-family="Arial" font-size="12.00"  text-anchor="middle">
		<text><tspan font-family="Arial" > 30</tspan></text>
	</g>
</g>
<g fill="none" color="black" stroke="currentColor" stroke-width="1.00" stroke-linecap="butt" stroke-linejoin="miter">
	<path stroke='black'  d='M285.6,428.0 L285.6,419.0 M285.6,18.1 L285.6,27.1  '/>	<g transform="translate(285.6,449.9)" stroke="none" fill="black" font-family="Arial" font-size="12.00"  text-anchor="middle">
		<text><tspan font-family="Arial" > 40</tspan></text>
	</g>
</g>
<g fill="none" color="black" stroke="currentColor" stroke-width="1.00" stroke-linecap="butt" stroke-linejoin="miter">
	<path stroke='black'  d='M341.4,428.0 L341.4,419.0 M341.4,18.1 L341.4,27.1  '/>	<g transform="translate(341.4,449.9)" stroke="none" fill="black" font-family="Arial" font-size="12.00"  text-anchor="middle">
		<text><tspan font-family="Arial" > 50</tspan></text>
	</g>
</g>
<g fill="none" color="black" stroke="currentColor" stroke-width="1.00" stroke-linecap="butt" stroke-linejoin="miter">
	<path stroke='black'  d='M397.2,428.0 L397.2,419.0 M397.2,18.1 L397.2,27.1  '/>	<g transform="translate(397.2,449.9)" stroke="none" fill="black" font-family="Arial" font-size="12.00"  text-anchor="middle">
		<text><tspan font-family="Arial" > 60</tspan></text>
	</g>
</g>
<g fill="none" color="black" stroke="currentColor" stroke-width="1.00" stroke-linecap="butt" stroke-linejoin="miter">
	<path stroke='black'  d='M453.1,428.0 L453.1,419.0 M453.1,18.1 L453.1,27.1  '/>	<g transform="translate(453.1,449.9)" stroke="none" fill="black" font-family="Arial" font-size="12.00"  text-anchor="middle">
		<text><tspan font-family="Arial" > 70</tspan></text>
	</g>
</g>
<g fill="none" color="black" stroke="currentColor" stroke-width="1.00" stroke-linecap="butt" stroke-linejoin="miter">
	<path stroke='black'  d='M508.9,428.0 L508.9,419.0 M508.9,18.1 L508.9,27.1  '/>	<g transform="translate(508.9,449.9)" stroke="none" fill="black" font-family="Arial" font-size="12.00"  text-anchor="middle">
		<text><tspan font-family="Arial" > 80</tspan></text>
	</g>
</g>
<g fill="none" color="black" stroke="currentColor" stroke-width="1.00" stroke-linecap="butt" stroke-linejoin="miter">
	<path stroke='black'  d='M564.7,428.0 L564.7,419.0 M564.7,18.1 L564.7,27.1  '/>	<g transform="translate(564.7,449.9)" stroke="none" fill="black" font-family="Arial" font-size="12.00"  text-anchor="middle">
		<text><tspan font-family="Arial" > 90</tspan></text>
	</g>
</g>
<g fill="none" color="black" stroke="currentColor" stroke-width="1.00" stroke-linecap="butt" stroke-linejoin="miter">
</g>
<g fill="none" color="black" stroke="currentColor" stroke-width="1.00" stroke-linecap="butt" stroke-linejoin="miter">
	<path stroke='black'  d='M62.2,18.1 L62.2,428.0 L615.0,428.0 L615.0,18.1 L62.2,18.1 Z  '/></g>
<g fill="none" color="black" stroke="currentColor" stroke-width="1.00" stroke-linecap="butt" stroke-linejoin="miter">
</g>
	<g id="gnuplot_plot_1" ><title>empty</title>
<g fill="none" color="black" stroke="currentColor" stroke-width="1.00" stroke-linecap="butt" stroke-linejoin="miter">
	<g transform="translate(279.8,467.9)" stroke="none" fill="black" font-family="Arial" font-size="12.00"  text-anchor="end">
		<text><tspan font-family="Arial" >empty</tspan></text>
	</g>
</g>
<g fill="none" color="black" stroke="currentColor" stroke-width="1.00" stroke-linecap="butt" stroke-linejoin="miter">
	<path stroke='rgb(148,   0, 211)'  d='M288.1,464.0 L330.3,464.0 M62.2,419.2 L67.8,420.1 L73.4,419.8 L79.0,419.6 L84.5,419.8 L90.1,419.8
		L95.7,419.9 L101.3,419.8 L106.9,419.9 L112.5,420.1 L118.0,420.1 L123.6,419.8 L129.2,419.8 L134.8,419.5
		L140.4,419.7 L146.0,419.7 L151.5,419.8 L157.1,419.8 L162.7,419.8 L168.3,419.8 L173.9,419.8 L179.5,420.0
		L185.0,419.8 L190.6,419.9 L196.2,419.9 L201.8,419.9 L207.4,419.8 L213.0,419.8 L218.5,419.8 L224.1,419.8
		L229.7,419.4 L235.3,419.8 L240.9,419.8 L246.5,419.8 L252.1,419.4 L257.6,419.8 L263.2,420.0 L268.8,419.8
		L274.4,419.9 L280.0,419.8 L285.6,419.9 L291.1,419.9 L296.7,419.9 L302.3,419.8 L307.9,419.9 L313.5,420.0
		L319.1,419.8 L324.6,419.8 L330.2,419.6 L335.8,419.1 L341.4,420.0 L347.0,419.7 L352.6,419.7 L358.1,419.4
		L363.7,419.6 L369.3,419.9 L374.9,419.9 L380.5,419.8 L386.1,420.0 L391.6,419.9 L397.2,419.7 L402.8,419.9
		L408.4,419.8 L414.0,419.8 L419.6,419.9 L425.1,419.9 L430.7,420.1 L436.3,419.9 L441.9,419.6 L447.5,419.8
		L453.1,419.8 L458.7,420.1 L464.2,419.8 L469.8,419.9 L475.4,419.8 L481.0,419.9 L486.6,419.9 L492.2,420.0
		L497.7,419.8 L503.3,419.9 L508.9,420.1 L514.5,419.8 L520.1,419.9 L525.7,419.8 L531.2,419.9 L536.8,420.0
		L542.4,420.1 L548.0,419.8 L553.6,419.9 L559.2,419.9 L564.7,419.8 L570.3,419.8 L575.9,420.1 L581.5,419.8
		L587.1,419.9 L592.7,419.7 L598.2,419.9 L603.8,419.9 L609.4,420.1 L615.0,419.4  '/></g>
	</g>
	<g id="gnuplot_plot_2" ><title>pages</title>
<g fill="none" color="black" stroke="currentColor" stroke-width="1.00" stroke-linecap="butt" stroke-linejoin="miter">
	<g transform="translate(279.8,485.9)" stroke="none" fill="black" font-family="Arial" font-size="12.00"  text-anchor="end">
		<text><tspan font-family="Arial" >pages</tspan></text>
	</g>
</g>
<g fill="none" color="black" stroke="currentColor" stroke-width="1.00" stroke-linecap="butt" stroke-linejoin="miter">
	<path stroke='rgb(  0, 158, 115)'  d='M288.1,482.0 L330.3,482.0 M62.2,26.0 L67.8,302.0 L73.4,302.2 L79.0,299.0 L84.5,302.9 L90.1,302.4
		L95.7,302.6 L101.3,302.3 L106.9,302.9 L112.5,302.7 L118.0,303.2 L123.6,285.1 L129.2,302.5 L134.8,303.0
		L140.4,302.6 L146.0,297.7 L151.5,302.5 L157.1,302.9 L162.7,303.2 L168.3,301.3 L173.9,302.9 L179.5,303.2
		L185.0,282.6 L190.6,297.2 L196.2,302.6 L201.8,303.3 L207.4,302.1 L213.0,302.4 L218.5,302.9 L224.1,303.0
		L229.7,302.3 L235.3,302.7 L240.9,302.8 L246.5,303.1 L252.1,294.1 L257.6,302.9 L263.2,303.2 L268.8,302.7
		L274.4,302.5 L280.0,303.0 L285.6,302.3 L291.1,303.2 L296.7,302.2 L302.3,297.0 L307.9,302.8 L313.5,295.8
		L319.1,301.9 L324.6,302.7 L330.2,303.0 L335.8,302.5 L341.4,236.0 L347.0,302.4 L352.6,303.3 L358.1,302.6
		L363.7,301.9 L369.3,303.3 L374.9,282.2 L380.5,302.3 L386.1,302.8 L391.6,303.3 L397.2,296.2 L402.8,303.3
		L408.4,303.2 L414.0,302.9 L419.6,302.2 L425.1,303.2 L430.7,303.0 L436.3,303.3 L441.9,292.3 L447.5,303.2
		L453.1,303.1 L458.7,302.9 L464.2,302.7 L469.8,303.2 L475.4,303.1 L481.0,303.1 L486.6,302.1 L492.2,303.2
		L497.7,303.0 L503.3,293.1 L508.9,302.2 L514.5,302.8 L520.1,303.1 L525.7,302.8 L531.2,302.4 L536.8,45.5
		L542.4,302.4 L548.0,302.5 L553.6,303.3 L559.2,283.0 L564.7,302.8 L570.3,302.6 L575.9,303.3 L581.5,302.6
		L587.1,302.6 L592.7,297.2 L598.2,302.7 L603.8,302.4 L609.4,303.1 L615.0,302.1  '/></g>
	</g>
	<g id="gnuplot_plot_3" ><title>score p10=3572</title>
<g fill="none" color="black" stroke="currentColor" stroke-width="1.00" stroke-linecap="butt" stroke-linejoin="miter">
	<g transform="translate(479.7,467.9)" stroke="none" fill="black" font-family="Arial" font-size="12.00"  text-anchor="end">
		<text><tspan font-family="Arial" >score p10=3572</tspan></text>
	</g>
</g>
<g fill="none" color="black" stroke="currentColor" stroke-width="1.00" stroke-linecap="butt" stroke-linejoin="miter">
	<path stroke='rgb( 86, 180, 233)'  d='M488.0,464.0 L530.2,464.0 M62.2,159.4 L67.8,159.4 L73.4,159.4 L79.0,159.4 L84.5,159.4 L90.1,159.4
		L95.7,159.4 L101.3,159.4 L106.9,159.4 L112.5,159.4 L118.0,159.4 L123.6,159.4 L129.2,159.4 L134.8,159.4
		L140.4,159.4 L146.0,159.4 L151.5,159.4 L157.1,159.4 L162.7,159.4 L168.3,159.4 L173.9,159.4 L179.5,159.4
		L185.0,159.4 L190.6,159.4 L196.2,159.4 L201.8,159.4 L207.4,159.4 L213.0,159.4 L218.5,159.4 L224.1,159.4
		L229.7,159.4 L235.3,159.4 L240.9,159.4 L246.5,159.4 L252.1,159.4 L257.6,159.4 L263.2,159.4 L268.8,159.4
		L274.4,159.4 L280.0,159.4 L285.6,159.4 L291.1,159.4 L296.7,159.4 L302.3,159.4 L307.9,159.4 L313.5,159.4
		L319.1,159.4 L324.6,159.4 L330.2,159.4 L335.8,159.4 L341.4,159.4 L347.0,159.4 L352.6,159.4 L358.1,159.4
		L363.7,159.4 L369.3,159.4 L374.9,159.4 L380.5,159.4 L386.1,159.4 L391.6,159.4 L397.2,159.4 L402.8,159.4
		L408.4,159.4 L414.0,159.4 L419.6,159.4 L425.1,159.4 L430.7,159.4 L436.3,159.4 L441.9,159.4 L447.5,159.4
		L453.1,159.4 L458.7,159.4 L464.2,159.4 L469.8,159.4 L475.4,159.4 L481.0,159.4 L486.6,159.4 L492.2,159.4
		L497.7,159.4 L503.3,159.4 L508.9,159.4 L514.5,159.4 L520.1,159.4 L525.7,159.4 L531.2,159.4 L536.8,159.4
		L542.4,159.4 L548.0,159.4 L553.6,159.4 L559.2,159.4 L564.7,159.4 L570.3,159.4 L575.9,159.4 L581.5,159.4
		L587.1,159.4 L592.7,159.4 L598.2,159.4 L603.8,159.4 L609.4,159.4 L615.0,159.4  '/></g>
	</g>
	<g id="gnuplot_plot_4" ><title>score median=6500</title>
<g fill="none" color="black" stroke="currentColor" stroke-width="1.00" stroke-linecap="butt" stroke-linejoin="miter">
	<g transform="translate(479.7,485.9)" stroke="none" fill="black" font-family="Arial" font-size="12.00"  text-anchor="end">
		<text><tspan font-family="Arial" >score median=6500</tspan></text>
	</g>
</g>
<g fill="none" color="black" stroke="currentColor" stroke-width="1.00" stroke-linecap="butt" stroke-linejoin="miter">
	<path stroke
